X:1
T:LE BEAU DU MONDE
T:Claude Lejeune (1530-1600)
%%score 1 2 3
L:1/8
Q:1/4=120
M:4/4
K:F
V:1 treble nm="Soprano" snm="S."
V:2 treble nm="Alto" snm="A."
V:3 bass nm="Baryton" snm="Bar."
V:1
 c2 A4 F2 | B4 A2 A2 | G2 F2 E2 F2- | F2 G2 A(B c2) | B2 A2 G2 F2 |[M:3/4] G E2 C F2 | G2 E D2 C | %7
w: Le beau du|mon- de s'ef-|fa- ce, Le beau|_ du mon _ _|de s'ef- fa- ce.|Sou- dain comme un|vent qui pas- se,|
 c A2 F B2 | c2 A G2 F | c A2 A d2 | c3 B A2 |[M:2/2] c4 B2 A2 | G4 C2 F2 | E4 z4 | %14
w: Sou- dain comme un|vent qui pas- se.|Sou- dain comme on|voit la fleur|sans sa pre-|miè- re cou-|leur.|
[M:3/4] c A2 F c2 | (AB cB/A/ GA | BA/G/ FG) A2 | G2 z2 z2 | G E2 C F2 | (EF GF/E/ DE | %20
w: Sou- dain comme une|on _ _ _ _ _ _|_ _ _ _ _ de|fuit.|Sou- dain comme une|on _ _ _ _ _ _|
 FE/D/ CD) E2 |[M:2/2] D4 z4 | z2 G2 c4 | A3 G FE D2- | D2 G3 FED | C4 F2 F2 | E8 | z8 | z8 | z8 | %30
w: _ _ _ _ _ de|fuit,|De- vant|l'au- tre qui la suit|_ l'au- tre qui la|suit, qui la|suit.||||
 z4 c4 | A4 z2 G2- | G2 A2 F4 | z4 B4 | (ABcB/A/ GABA/G/) | F2 A2 G4 | F4 z4 | z4 z2 A2- | %38
w: Un|vent, u|_ ne fleur,|une|on _ _ _ _ _ _ _ _ _|de, une on-|de|Qu'est|
 A2 G2 F4 | E2 A2 G2 c2- | c2 =B2 c4 | z8 | z2 G4 A2 | F4 z4 | B4 (ABcB/A/ | GABA/G/ FGAG/F/ | %46
w: _ ce donc-|ques que du mon|_ _ de?||U- ne|fleur,|une on _ _ _ _|_ _ _ _ _ _ _ _ _ _|
 EFGF/E/ DEFE/D/) | C2 F2 E4 | F8 |] %49
w: |de, une on-|de.|
V:2
 z4 F2 D2- | D2 E2 F4 | E2 C2 C2 A,C | D4 F2 E(F | G2) CD E2 C2 |[M:3/4] =B, C2 A, A,2 | %6
w: Le beau|_ du mon-|de s'ef- fa- ce. Le|beau du mon _|_ de s'ef- fa- ce.|Sou- dain comme un|
 G,2 C =B,2 C | G, C2 D D2 | C2 F E2 F | E F2 F G2 | A3 G ^F2 |[M:2/2] A4 (DE) F2 | C4 A,2 D2 | %13
w: vent qui pas- se,|Sou- dain comme un|vent qui pas- se.|Sou- dain comme on|voit la fleur|sans sa _ pre-|miè- re cou-|
 ^C4 z4 |[M:3/4] E F2 D G2 | (FG AG/F/ EF | GF/E/ DE) F2 | E2 z2 z2 | =B, C2 A, D2 | %19
w: leur.|Sou- dain comme une|on _ _ _ _ _ _|_ _ _ _ _ de|fuit.|Sou- dain comme une|
 (CD ED/C/ =B,C | DC/=B,/ A,B,) C2 |[M:2/2] =B,4 D2 G2- | G2 E2- EDC=B, | C2 D3 C(=B,A,) | %24
w: on _ _ _ _ _ _|_ _ _ _ _ de|fuit, De- vant|_ l'au- tre qui la suit,|l'au- tre qui la _|
 =B,4 C3 _B, | A,G, A,2 A,2 =B,2 | C8 | z2 F4 E2 | D4 C2 F2 | E2 (A4 G2) | A4 z4 | z4 z2 E2- | %32
w: suit, l'au- tre|qui la suit, qui la|suit.|Qu'est- ce|donc- ques que|du mon _|de|u|
 E2 F2 D4 | z4 D4 | (FGAG/F/ EFGF/E/) | D2 C (F2 E/D/ E2) | F4 F4 | C2 D4 C2 | B,4 A,2 D2 | %39
w: _ ne fleur,|une|on _ _ _ _ _ _ _ _ _|de, une on _ _ _|de. Qu'est-|ce, Qu'est- ce|donc- ques que|
 C2 (F3 EDC | D4) C4 | z8 | z2 E4 F2 | D4 z4 | D4 (FGAG/F/ | EFGF/E/ DEFE/D/) | C4 B,4 | %47
w: du mon _ _ _|_ de?||U- ne|fleur,|une on _ _ _ _|_ _ _ _ _ _ _ _ _ _|de, une|
 (A,3 G,/F,/ G,4) | [F,F]8 |] %49
w: on _ _ _|de.|
V:3
 z8 | z8 | C2 A,4 F,2 | B,4 A,2 A,2 | G,2 F,F, C2 A,2 |[M:3/4] G, C,2 F, D,2 | E,2 C, G,2 C, | %7
w: ||Le beau du|mon- de s'ef-|fa- ce, s'ef- fa- ce.|Sou- dain comme un|vent qui pas- se,|
 E, F,2 B, G,2 | A,2 F, C2 F, | A, D2 C B,2 | F,3 G, D2 |[M:2/2] A,4 G,2 D,2 | E,4 F,2 D,2 | %13
w: Sou- dain comme un|vent qui pas- se.|Sou- dain comme on|voit la fleur|sans sa pre-|miè- re cou-|
 A,4 z4 |[M:3/4] A, F,2 B, G,2 | (DC/B,/ A,B, CB,/A,/ | G,A, B,A,/G,/) F,2 | C2 z2 z2 | %18
w: leur.|Sou- dain comme une|on _ _ _ _ _ _ _|_ _ _ _ de fuit.|fuit.|
 G, C,2 F, D,2 | (A,G,/F,/ E,F, G,F,/E,/ | D,E, F,E,/D,/) C,2 |[M:2/2] G,4 z2 G,2 | C4 A,3 G, | %23
w: Sou- dain comme une|on _ _ _ _ _ _ _|_ _ _ _ de fuit,|fuit, De-|vant l'au- tre|
 F,E, D,4 G,2- | G,F,E,D, C,4 | F,3 E, (D,C,) D,2 | C,4 z2 C2- | C2 A,2 G,4 | F,2 B,2 A,2 (D2- | %29
w: qui la suit, l'au|_ tre qui la suit,|l'au- tre qui _ la|suit. Qu'est|_ ce donc-|ques que du mon|
 DCB,A, B,4) | A,4 z4 | z4 z2 C2- | C2 F,2 B,4 | z4 G,4 | (DC/B,/A,B, CB,/A,/G,A,) | B,2 F,2 C4 | %36
w: _ _ _ _ _|de?|u|_ ne fleur,|une|on _ _ _ _ _ _ _ _ _|de, une on-|
 F,4 z2 A,2- | A,2 G,2 F,4 | D,8 | z8 | z8 | F4 D4 | z2 C4 F,2 | B,4 z4 | G,4 (DC/B,/A,B, | %45
w: de. Qu'est|_ ce donc-|ques?|||Un vent,|u- ne|fleur,|une on _ _ _ _|
 CB,/A,/G,A, B,A,/G,/F,G, | A,G,/F,/E,F, G,F,/E,/D,E,) | F,2 D,2 C,4 | F,8 |] %49
w: _ _ _ _ _ _ _ _ _ _||de, une on-|de.|

